icons/light/swift.svg

<svg width="16" height="16" viewBox="0 0 16 16" fill="none" xmlns="http://www.w3.org/2000/svg">
<path d="M11.3933 13.1467C9.82 14.0533 7.66667 14.1467 5.48667 13.2133C3.77514 12.4788 2.32686 11.2421 1.33334 9.66667C1.78 10.0333 2.30667 10.3333 2.86667 10.6C5.11334 11.6467 7.35334 11.5733 8.93334 10.6C6.68667 8.87334 4.77334 6.62667 3.35334 4.79334C3.05334 4.49334 2.83334 4.12001 2.60667 3.78667C8.12667 7.82001 7.88667 8.84667 4.21334 3.11334C7.47334 6.40667 10.5 8.27334 10.5 8.27334C10.6067 8.33334 10.6667 8.38001 10.74 8.42001C10.8067 8.25334 10.8667 8.08001 10.9133 7.90001C11.44 6.00001 10.84 3.82001 9.52667 2.02667C12.56 3.86001 14.36 7.30001 13.6067 10.1867C13.5867 10.26 13.5667 10.3333 13.5733 10.4467C15.0667 12.3333 14.6667 14.3 14.4733 13.9267C13.6667 12.3333 12.1533 12.8267 11.3933 13.1467Z" fill="#424242"/>
</svg>

<svg xmlns="http://www.w3.org/2000/svg" width="16" height="16" fill="none" xmlns:v="https://vecta.io/nano"><path d="M11.393 13.147c-1.573.907-3.727 1-5.907.067a9.2 9.2 0 0 1-4.153-3.547c.447.367.973.667 1.533.933 2.247 1.047 4.487.973 6.067 0-2.247-1.727-4.16-3.973-5.58-5.807-.3-.3-.52-.673-.747-1.007 5.52 4.033 5.28 5.06 1.607-.673 3.26 3.293 6.287 5.16 6.287 5.16l.24.147c.067-.167.127-.34.173-.52.527-1.9-.073-4.08-1.387-5.873 3.033 1.833 4.833 5.273 4.08 8.16-.02.073-.04.147-.033.26 1.493 1.887 1.093 3.853.9 3.48-.807-1.593-2.32-1.1-3.08-.78z" fill="#424242"/></svg>
